assets/svg/gift_icon_withe.svg

<svg fill="none" height="24" viewBox="0 0 24 24" width="24" xmlns="http://www.w3.org/2000/svg"><path d="m22.1241 4.5h-4.3276c.3901-.4329.5967-1.0004.5762-1.58282-.0205-.58234-.2665-1.1339-.6862-1.53828-.4195-.404377-.9798-.629917-1.5625-.628897h-.375c-.791.001172-1.5649.229541-2.2296.657957-.6649.42844-1.1926 1.03882-1.5204 1.7586-.3279-.71976-.8556-1.33016-1.5204-1.7586-.6648-.428437-1.43872-.656797-2.22964-.657957h-.375c-.58274-.000937-1.14296.2246-1.5625.628977-.41954.40438-.66554.95594-.68602 1.53828-.02046.58234.1861 1.14984.57618 1.58274h-4.3276c-.29828.00032-.58422.11899-.79516.32984-.210857.21094-.329537.49688-.329837.79516v3c.000313.29828.118984.58422.329837.79516.21094.21086.49688.32954.79516.32984h.375v12.375c.00032.2983.11899.5842.32984.7952.21094.2108.49688.3295.79516.3298h17.24998c.2983-.0003.5842-.119.7952-.3298.2108-.211.3295-.4969.3298-.7952v-12.375h.375c.2983-.00031.5842-.11898.7952-.32984.2108-.21094.3295-.49688.3298-.79516v-3c-.0003-.29828-.119-.58422-.3298-.79516-.211-.21086-.4969-.32954-.7952-.32984zm-6.375-3h.375c.5358 0 1.0311.28586 1.299.75s.2679 1.03586 0 1.5-.7632.75-1.299.75h-3.7292c.0933-.8246.4867-1.5861 1.1053-2.1394.6186-.55328 1.4191-.8596 2.249-.86062zm-9.37502 1.5c.00047-.39766.1586-.77898.43984-1.06016.28118-.28124.6625-.43938 1.06016-.43984h.375c.82992.00102 1.6304.30734 2.24902.86062.6186.55328 1.012 1.31476 1.1053 2.1394h-3.7292c-.39766-.00046-.77898-.15859-1.06016-.43984-.28124-.28118-.43938-.6625-.43984-1.06016zm-4.875 5.625v-3c.00016-.09945.03969-.19468.11-.265.07032-.07031.16555-.10984.265-.11h7.5v3.75h-7.5c-.09945-.00015-.19468-.03968-.265-.11-.07031-.07031-.10984-.16554-.11-.265zm1.5 13.5v-12.375h6.375v12.75h-6c-.09945-.0002-.19468-.0397-.265-.11-.07031-.0703-.10984-.1655-.11-.265zm7.12502-16.875h3.75v17.25h-3.75zm10.875 16.875c-.0002.0995-.0397.1947-.11.265s-.1656.1098-.265.11h-6v-12.75h6.375zm1.5-13.5c-.0002.09946-.0397.19469-.11.265-.0703.07032-.1656.10985-.265.11h-7.5v-3.75h7.5c.0994.00016.1947.03969.265.11.0703.07032.1098.16555.11.265z" fill="#fff"/></svg>

<svg width="24" height="24" viewBox="0 0 24 24" fill="none" xmlns="http://www.w3.org/2000/svg">
<path d="M22.1241 4.5H17.7965C18.1866 4.0671 18.3932 3.4996 18.3727 2.91718C18.3522 2.33484 18.1062 1.78328 17.6865 1.3789C17.267 0.974523 16.7067 0.748983 16.124 0.750003H15.749C14.958 0.751175 14.1841 0.979544 13.5194 1.40796C12.8545 1.8364 12.3268 2.44678 11.999 3.16656C11.6711 2.4468 11.1434 1.8364 10.4786 1.40796C9.8138 0.979523 9.03988 0.751163 8.24896 0.750003H7.87396C7.29122 0.749066 6.731 0.974603 6.31146 1.37898C5.89192 1.78336 5.64592 2.33492 5.62544 2.91726C5.60498 3.4996 5.81154 4.0671 6.20162 4.5H1.87402C1.57574 4.50032 1.2898 4.61899 1.07886 4.82984C0.868003 5.04078 0.749323 5.32672 0.749023 5.625V8.625C0.749336 8.92328 0.868007 9.20922 1.07886 9.42016C1.2898 9.63102 1.57574 9.7497 1.87402 9.75H2.24902V22.125C2.24934 22.4233 2.36801 22.7092 2.57886 22.9202C2.7898 23.131 3.07574 23.2497 3.37402 23.25H20.624C20.9223 23.2497 21.2082 23.131 21.4192 22.9202C21.63 22.7092 21.7487 22.4233 21.749 22.125V9.75H22.124C22.4223 9.74969 22.7082 9.63102 22.9192 9.42016C23.13 9.20922 23.2487 8.92328 23.249 8.625V5.625C23.2487 5.32672 23.13 5.04078 22.9192 4.82984C22.7082 4.61898 22.4223 4.5003 22.124 4.5H22.1241ZM15.7491 1.5H16.1241C16.6599 1.5 17.1552 1.78586 17.4231 2.25C17.691 2.71414 17.691 3.28586 17.4231 3.75C17.1552 4.21414 16.6599 4.5 16.1241 4.5H12.3949C12.4882 3.6754 12.8816 2.9139 13.5002 2.3606C14.1188 1.80732 14.9193 1.501 15.7492 1.49998L15.7491 1.5ZM6.37408 3C6.37455 2.60234 6.53268 2.22102 6.81392 1.93984C7.0951 1.6586 7.47642 1.50046 7.87408 1.5H8.24908C9.079 1.50102 9.87948 1.80734 10.4981 2.36062C11.1167 2.9139 11.5101 3.67538 11.6034 4.50002H7.8742C7.47654 4.49956 7.09522 4.34143 6.81404 4.06018C6.5328 3.779 6.37466 3.39768 6.3742 3.00002L6.37408 3ZM1.49908 8.625V5.625C1.49924 5.52555 1.53877 5.43032 1.60908 5.36C1.6794 5.28969 1.77463 5.25016 1.87408 5.25H9.37408V9H1.87408C1.77463 8.99985 1.6794 8.96032 1.60908 8.89C1.53877 8.81969 1.49924 8.72446 1.49908 8.625ZM2.99908 22.125V9.75H9.37408V22.5H3.37408C3.27463 22.4998 3.1794 22.4603 3.10908 22.39C3.03877 22.3197 2.99924 22.2245 2.99908 22.125ZM10.1241 5.25H13.8741V22.5H10.1241V5.25ZM20.9991 22.125C20.9989 22.2245 20.9594 22.3197 20.8891 22.39C20.8188 22.4603 20.7235 22.4998 20.6241 22.5H14.6241V9.75H20.9991V22.125ZM22.4991 8.625C22.4989 8.72446 22.4594 8.81969 22.3891 8.89C22.3188 8.96032 22.2235 8.99985 22.1241 9H14.6241V5.25H22.1241C22.2235 5.25016 22.3188 5.28969 22.3891 5.36C22.4594 5.43032 22.4989 5.52555 22.4991 5.625V8.625Z" fill="white"/>
</svg>
